public/images/icons/helix.svg

<svg width="26" height="26" viewBox="0 0 26 26" fill="none" xmlns="http://www.w3.org/2000/svg">
<path d="M19.9332 4.22993V2.59973H18.1998V4.22993H7.79983V2.59973H6.06641V4.22993C6.06641 6.27145 6.89425 8.11979 8.23325 9.45879L11.7742 12.9997L8.23325 16.5409C6.89425 17.8797 6.06641 19.7283 6.06641 21.7695V23.3997H7.79983V21.7695H18.1998V23.3997H19.9332V21.7695C19.9332 19.728 19.1054 17.8797 17.7664 16.5409L14.2255 12.9997L17.7664 9.45853C19.1054 8.11953 19.9332 6.27119 19.9332 4.22993ZM8.07231 5.96309H17.9263C17.7141 6.62843 17.3795 7.25035 16.931 7.79973H9.06759C8.61987 7.25035 8.28551 6.62843 8.07231 5.96309ZM17.9263 20.0361H8.07231C8.28551 19.3708 8.61987 18.7489 9.06759 18.1997H16.931C17.3798 18.7489 17.7141 19.371 17.9263 20.0361ZM15.241 16.4663H10.7586L12.9998 14.2254L15.241 16.4663ZM10.7586 9.53315H15.241L12.9998 11.7744L10.7586 9.53315Z" fill="#FBFBFB"/>
</svg>

<svg xmlns="http://www.w3.org/2000/svg" width="26" height="26" fill="none"><path fill="#FBFBFB" d="M19.933 4.23V2.6H18.2v1.63H7.8V2.6H6.066v1.63c0 2.041.828 3.89 2.167 5.229l3.541 3.54-3.54 3.542a7.37 7.37 0 0 0-2.168 5.229v1.63H7.8v-1.63h10.4v1.63h1.733v-1.63a7.37 7.37 0 0 0-2.167-5.23L14.226 13l3.54-3.541a7.371 7.371 0 0 0 2.167-5.23ZM8.073 5.963h9.853a5.58 5.58 0 0 1-.995 1.837H9.068a5.613 5.613 0 0 1-.996-1.837Zm9.853 14.073H8.072a5.61 5.61 0 0 1 .996-1.836h7.863c.449.549.783 1.171.995 1.836Zm-2.685-3.57h-4.482l2.24-2.24 2.242 2.24Zm-4.482-6.933h4.482L13 11.774l-2.241-2.24Z"/></svg>
